;FLAVOR:UltiGCode
;TIME:2310
;MATERIAL:3612
;MATERIAL2:0
;NOZZLE_DIAMETER:0.4
;Generated with Cura_SteamEngine 3.2.1
M82 ;absolute extrusion mode

;LAYER_COUNT:104
;LAYER:0
M107
G0 F3600 X94.966 Y94.39 Z0.3
;TYPE:SKIRT
G1 F1800 X96.211 Y93.269 E0.20104
G1 X96.845 Y92.756 E0.2989
G1 X98.202 Y91.77 E0.50019
G1 X98.887 Y91.325 E0.59821
G1 X100.335 Y90.489 E0.79885
G1 X101.063 Y90.118 E0.8969
G1 X102.593 Y89.437 E1.09787
G1 X103.357 Y89.144 E1.19606
G1 X104.95 Y88.627 E1.39704
G1 X105.734 Y88.417 E1.49443
G1 X107.374 Y88.068 E1.69564
G1 X108.183 Y87.94 E1.79393
G1 X109.849 Y87.765 E1.99495
G1 X110.664 Y87.722 E2.09288
G1 X112.336 Y87.722 E2.29352
G1 X113.151 Y87.765 E2.39146
G1 X114.817 Y87.94 E2.59248
G1 X115.626 Y88.068 E2.69077
G1 X117.266 Y88.417 E2.89197
G1 X118.05 Y88.627 E2.98937
G1 X119.643 Y89.144 E3.19034
G1 X120.406 Y89.437 E3.28842
G1 X121.934 Y90.117 E3.48912
G1 X122.662 Y90.488 E3.58717
G1 X124.112 Y91.325 E3.78808
G1 X124.797 Y91.769 E3.88604
G1 X126.153 Y92.754 E4.08716
G1 X126.788 Y93.268 E4.18519
G1 X128.032 Y94.388 E4.38606
G1 X128.61 Y94.966 E4.48415
G1 X129.731 Y96.211 E4.68519
G1 X130.243 Y96.844 E4.78288
G1 X131.228 Y98.199 E4.98391
G1 X131.674 Y98.886 E5.08219
G1 X132.511 Y100.336 E5.2831
G1 X132.882 Y101.063 E5.38105
G1 X133.563 Y102.593 E5.58201
G1 X133.856 Y103.357 E5.6802
G1 X134.373 Y104.95 E5.88118
G1 X134.583 Y105.733 E5.97846
G1 X134.932 Y107.371 E6.17943
G1 X135.06 Y108.181 E6.27784
G1 X135.235 Y109.847 E6.47886
G1 X135.278 Y110.662 E6.57679
G1 X135.278 Y112.336 E6.77767
G1 X135.235 Y113.151 E6.87561
G1 X135.06 Y114.817 E7.07663
G1 X134.932 Y115.626 E7.17492
G1 X134.583 Y117.266 E7.37612
G1 X134.374 Y118.048 E7.47326
G1 X133.858 Y119.639 E7.67397
G1 X133.564 Y120.405 E7.77242
G1 X132.883 Y121.935 E7.97339
G1 X132.512 Y122.662 E8.07133
G1 X131.675 Y124.112 E8.27224
G1 X131.231 Y124.797 E8.3702
G1 X130.246 Y126.153 E8.57132
G1 X129.732 Y126.788 E8.66935
G1 X128.612 Y128.032 E8.87022
G1 X128.034 Y128.61 E8.96831
G1 X126.789 Y129.731 E9.16935
G1 X126.155 Y130.244 E9.26721
G1 X124.798 Y131.23 E9.4685
G1 X124.113 Y131.675 E9.56652
G1 X122.665 Y132.511 E9.76716
G1 X121.937 Y132.882 E9.86521
G1 X120.407 Y133.563 E10.06618
G1 X119.643 Y133.856 E10.16437
G1 X118.05 Y134.373 E10.36535
G1 X117.266 Y134.583 E10.46274
G1 X115.626 Y134.932 E10.66395
G1 X114.817 Y135.06 E10.76224
G1 X113.151 Y135.235 E10.96326
G1 X112.336 Y135.278 E11.06119
G1 X110.664 Y135.278 E11.26183
G1 X109.849 Y135.235 E11.35977
G1 X108.183 Y135.06 E11.56079
G1 X107.374 Y134.932 E11.65908
G1 X105.734 Y134.583 E11.86028
G1 X104.95 Y134.373 E11.95768
G1 X103.357 Y133.856 E12.15866
G1 X102.593 Y133.563 E12.25685
G1 X101.063 Y132.882 E12.45781
G1 X100.335 Y132.511 E12.55586
G1 X98.887 Y131.675 E12.7565
G1 X98.202 Y131.23 E12.85452
G1 X96.845 Y130.244 E13.05581
G1 X96.211 Y129.731 E13.15368
G1 X94.966 Y128.61 E13.35472
G1 X94.388 Y128.032 E13.45281
G1 X93.268 Y126.788 E13.65367
G1 X92.754 Y126.153 E13.75171
G1 X91.769 Y124.797 E13.95283
G1 X91.325 Y124.112 E14.05078
G1 X90.488 Y122.662 E14.25169
G1 X90.117 Y121.935 E14.34964
G1 X89.436 Y120.405 E14.5506
G1 X89.142 Y119.639 E14.64906
G1 X88.626 Y118.048 E14.84977
G1 X88.417 Y117.266 E14.9469
G1 X88.068 Y115.626 E15.14811
G1 X87.94 Y114.818 E15.24628
G1 X87.765 Y113.154 E15.44706
G1 X87.722 Y112.338 E15.54512
G1 X87.722 Y110.664 E15.746
G1 X87.765 Y109.849 E15.84393
G1 X87.94 Y108.183 E16.04495
G1 X88.068 Y107.374 E16.14324
G1 X88.417 Y105.734 E16.34445
G1 X88.626 Y104.952 E16.44158
G1 X89.142 Y103.361 E16.64229
G1 X89.436 Y102.595 E16.74075
G1 X90.117 Y101.065 E16.94171
G1 X90.488 Y100.338 E17.03966
G1 X91.325 Y98.888 E17.24057
G1 X91.769 Y98.203 E17.33852
G1 X92.754 Y96.847 E17.53964
G1 X93.268 Y96.212 E17.63768
G1 X94.388 Y94.968 E17.83854
G1 X94.966 Y94.39 E17.93663
G0 F3600 X95.233 Y94.688
G1 F1800 X96.478 Y93.567 E18.13767
G1 X97.08 Y93.079 E18.23067
G1 X98.437 Y92.093 E18.43195
G1 X99.087 Y91.671 E18.52495
G1 X100.535 Y90.835 E18.72559
G1 X101.226 Y90.483 E18.81865
G1 X102.756 Y89.802 E19.01961
G1 X103.481 Y89.524 E19.11279
G1 X105.074 Y89.007 E19.31377
G1 X105.818 Y88.808 E19.40619
G1 X107.458 Y88.459 E19.60739
G1 X108.225 Y88.337 E19.70059
G1 X109.891 Y88.162 E19.90161
G1 X110.664 Y88.122 E19.99449
G1 X112.336 Y88.122 E20.19513
G1 X113.109 Y88.162 E20.28802
G1 X114.775 Y88.337 E20.48904
G1 X115.542 Y88.459 E20.58223
G1 X117.182 Y88.808 E20.78344
G1 X117.926 Y89.007 E20.87586
G1 X119.519 Y89.524 E21.07683
G1 X120.244 Y89.802 E21.17001
G1 X121.772 Y90.482 E21.37071
G1 X122.462 Y90.834 E21.46366
G1 X123.912 Y91.671 E21.66457
G1 X124.562 Y92.093 E21.75757
G1 X125.918 Y93.078 E21.95869
G1 X126.52 Y93.566 E22.05168
G1 X127.764 Y94.686 E22.25255
G1 X128.312 Y95.233 E22.34546
G1 X129.433 Y96.478 E22.5465
G1 X129.92 Y97.079 E22.63932
G1 X130.905 Y98.434 E22.84035
G1 X131.328 Y99.086 E22.93361
G1 X132.165 Y100.536 E23.13452
G1 X132.517 Y101.226 E23.22747
G1 X133.198 Y102.756 E23.42844
G1 X133.476 Y103.481 E23.52161
G1 X133.993 Y105.074 E23.72259
G1 X134.192 Y105.816 E23.81477
G1 X134.541 Y107.454 E24.01575
G1 X134.663 Y108.223 E24.10918
G1 X134.838 Y109.889 E24.3102
G1 X134.878 Y110.662 E24.40308
G1 X134.878 Y112.336 E24.60396
G1 X134.838 Y113.109 E24.69685
G1 X134.663 Y114.775 E24.89787
G1 X134.541 Y115.542 E24.99107
G1 X134.192 Y117.182 E25.19227
G1 X133.993 Y117.925 E25.28457
G1 X133.477 Y119.516 E25.48528
G1 X133.199 Y120.242 E25.57857
G1 X132.518 Y121.772 E25.77954
G1 X132.166 Y122.462 E25.87249
G1 X131.329 Y123.912 E26.0734
G1 X130.907 Y124.562 E26.1664
G1 X129.922 Y125.918 E26.36752
G1 X129.434 Y126.52 E26.46051
G1 X128.314 Y127.764 E26.66138
G1 X127.767 Y128.312 E26.75429
G1 X126.522 Y129.433 E26.95533
G1 X125.92 Y129.921 E27.04832
G1 X124.563 Y130.907 E27.24961
G1 X123.913 Y131.329 E27.34261
G1 X122.465 Y132.165 E27.54325
G1 X121.774 Y132.517 E27.63631
G1 X120.244 Y133.198 E27.83727
G1 X119.519 Y133.476 E27.93045
G1 X117.926 Y133.993 E28.13142
G1 X117.182 Y134.192 E28.22384
G1 X115.542 Y134.541 E28.42505
G1 X114.775 Y134.663 E28.51825
G1 X113.109 Y134.838 E28.71927
G1 X112.336 Y134.878 E28.81215
G1 X110.664 Y134.878 E29.01279
G1 X109.891 Y134.838 E29.10567
G1 X108.225 Y134.663 E29.30669
G1 X107.458 Y134.541 E29.39989
G1 X105.818 Y134.192 E29.6011
G1 X105.074 Y133.993 E29.69352
G1 X103.481 Y133.476 E29.89449
G1 X102.756 Y133.198 E29.98767
G1 X101.226 Y132.517 E30.18863
G1 X100.535 Y132.165 E30.28169
G1 X99.087 Y131.329 E30.48233
G1 X98.437 Y130.907 E30.57533
G1 X97.08 Y129.921 E30.77662
G1 X96.478 Y129.433 E30.86961
G1 X95.233 Y128.312 E31.07065
G1 X94.686 Y127.764 E31.16356
G1 X93.566 Y126.52 E31.36443
G1 X93.078 Y125.918 E31.45742
G1 X92.093 Y124.562 E31.65854
G1 X91.671 Y123.912 E31.75154
G1 X90.834 Y122.462 E31.95245
G1 X90.482 Y121.772 E32.0454
G1 X89.801 Y120.242 E32.24637
G1 X89.523 Y119.516 E32.33965
G1 X89.007 Y117.925 E32.54036
G1 X88.808 Y117.182 E32.63267
G1 X88.459 Y115.542 E32.83387
G1 X88.338 Y114.776 E32.92693
G1 X88.163 Y113.112 E33.12772
G1 X88.122 Y112.338 E33.22073
G1 X88.122 Y110.664 E33.42161
G1 X88.162 Y109.891 E33.51449
G1 X88.337 Y108.225 E33.71551
G1 X88.459 Y107.458 E33.80871
G1 X88.808 Y105.818 E34.00991
G1 X89.007 Y105.075 E34.10222
G1 X89.523 Y103.484 E34.30293
G1 X89.801 Y102.758 E34.39621
G1 X90.482 Y101.228 E34.59718
G1 X90.834 Y100.538 E34.69013
G1 X91.671 Y99.088 E34.89104
G1 X92.093 Y98.438 E34.98404
G1 X93.078 Y97.082 E35.18516
G1 X93.566 Y96.48 E35.27815
G1 X94.686 Y95.236 E35.47902
G1 X95.233 Y94.688 E35.57193
G0 F3600 X95.501 Y94.985
G1 F1800 X96.746 Y93.864 E35.77297
G1 X97.315 Y93.403 E35.86085
G1 X98.672 Y92.417 E36.06213
G1 X99.287 Y92.018 E36.15011
G1 X100.735 Y91.182 E36.35075
G1 X101.389 Y90.849 E36.43881
G1 X102.919 Y90.168 E36.63978
G1 X103.604 Y89.905 E36.72783
G1 X105.197 Y89.388 E36.9288
G1 X105.901 Y89.199 E37.01628
G1 X107.541 Y88.85 E37.21748
G1 X108.267 Y88.735 E37.30569
G1 X109.933 Y88.56 E37.50671
G1 X110.664 Y88.522 E37.59455
G1 X112.336 Y88.522 E37.79519
G1 X113.067 Y88.56 E37.88303
G1 X114.733 Y88.735 E38.08405
G1 X115.459 Y88.85 E38.17225
G1 X117.099 Y89.199 E38.37346
G1 X117.803 Y89.388 E38.46093
G1 X119.396 Y89.905 E38.66191
G1 X120.081 Y90.168 E38.74996
G1 X121.609 Y90.848 E38.95065
G1 X122.263 Y91.181 E39.03872
G1 X123.713 Y92.018 E39.23963
G1 X124.327 Y92.417 E39.3275
G1 X125.683 Y93.402 E39.52862
G1 X126.253 Y93.863 E39.61659
G1 X127.497 Y94.983 E39.81746
G1 X128.015 Y95.501 E39.90537
G1 X129.136 Y96.746 E40.1064
G1 X129.596 Y97.314 E40.19411
G1 X130.581 Y98.669 E40.39513
G1 X130.981 Y99.285 E40.48327
G1 X131.818 Y100.735 E40.68418
G1 X132.151 Y101.389 E40.77225
G1 X132.832 Y102.919 E40.97321
G1 X133.095 Y103.604 E41.06126
G1 X133.612 Y105.197 E41.26224
G1 X133.8 Y105.899 E41.34945
G1 X134.149 Y107.537 E41.55042
G1 X134.265 Y108.265 E41.63888
G1 X134.44 Y109.931 E41.8399
G1 X134.478 Y110.662 E41.92774
G1 X134.478 Y112.336 E42.12862
G1 X134.44 Y113.067 E42.21646
G1 X134.265 Y114.733 E42.41748
G1 X134.15 Y115.459 E42.50568
G1 X133.801 Y117.099 E42.70689
G1 X133.613 Y117.802 E42.79422
G1 X133.097 Y119.393 E42.99493
G1 X132.833 Y120.079 E43.08313
G1 X132.152 Y121.609 E43.2841
G1 X131.819 Y122.263 E43.37216
G1 X130.982 Y123.713 E43.57307
G1 X130.583 Y124.327 E43.66094
G1 X129.598 Y125.683 E43.86206
G1 X129.137 Y126.253 E43.95003
G1 X128.017 Y127.497 E44.1509
G1 X127.499 Y128.015 E44.23881
G1 X126.254 Y129.136 E44.43985
G1 X125.685 Y129.597 E44.52772
G1 X124.328 Y130.583 E44.72901
G1 X123.713 Y130.982 E44.81698
G1 X122.265 Y131.818 E45.01762
G1 X121.611 Y132.151 E45.10569
G1 X120.081 Y132.832 E45.30666
G1 X119.396 Y133.095 E45.39471
G1 X117.803 Y133.612 E45.59568
G1 X117.099 Y133.801 E45.68315
G1 X115.459 Y134.15 E45.88436
G1 X114.733 Y134.265 E45.97257
G1 X113.067 Y134.44 E46.17359
G1 X112.336 Y134.478 E46.26142
G1 X110.664 Y134.478 E46.46206
G1 X109.933 Y134.44 E46.5499
G1 X108.267 Y134.265 E46.75092
G1 X107.541 Y134.15 E46.83913
G1 X105.901 Y133.801 E47.04034
G1 X105.197 Y133.612 E47.12781
G1 X103.604 Y133.095 E47.32878
G1 X102.919 Y132.832 E47.41683
G1 X101.389 Y132.151 E47.6178
G1 X100.735 Y131.818 E47.70587
G1 X99.287 Y130.982 E47.90651
G1 X98.672 Y130.583 E47.99448
G1 X97.315 Y129.597 E48.19577
G1 X96.746 Y129.136 E48.28364
G1 X95.501 Y128.015 E48.48468
G1 X94.983 Y127.497 E48.57259
G1 X93.863 Y126.253 E48.77346
G1 X93.402 Y125.683 E48.86143
G1 X92.417 Y124.327 E49.06255
G1 X92.018 Y123.713 E49.15042
G1 X91.181 Y122.263 E49.35132
G1 X90.848 Y121.609 E49.43939
G1 X90.167 Y120.079 E49.64036
G1 X89.903 Y119.393 E49.72856
G1 X89.387 Y117.802 E49.92927
G1 X89.199 Y117.099 E50.0166
G1 X88.85 Y115.459 E50.2178
G1 X88.735 Y114.734 E50.30589
G1 X88.56 Y113.07 E50.50667
G1 X88.522 Y112.338 E50.59463
G1 X88.522 Y110.664 E50.79551
G1 X88.56 Y109.933 E50.88335
G1 X88.735 Y108.267 E51.08437
G1 X88.85 Y107.541 E51.17258
G1 X89.199 Y105.901 E51.37378
G1 X89.387 Y105.198 E51.46111
G1 X89.903 Y103.607 E51.66182
G1 X90.167 Y102.921 E51.75002
G1 X90.848 Y101.391 E51.95099
G1 X91.181 Y100.737 E52.03906
G1 X92.018 Y99.287 E52.23996
G1 X92.417 Y98.673 E52.32784
G1 X93.402 Y97.317 E52.52895
G1 X93.863 Y96.747 E52.61693
G1 X94.983 Y95.503 E52.81779
G1 X95.501 Y94.985 E52.9057
G0 F3600 X95.769 Y95.282
G1 F1800 X97.014 Y94.161 E53.10674
G1 X97.55 Y93.727 E53.1895
G1 X98.907 Y92.741 E53.39079
G1 X99.487 Y92.364 E53.4738
G1 X100.935 Y91.528 E53.67444
G1 X101.551 Y91.214 E53.75741
G1 X103.081 Y90.533 E53.95837
G1 X103.728 Y90.285 E54.04152
G1 X105.321 Y89.768 E54.2425
G1 X105.984 Y89.591 E54.32484
G1 X107.624 Y89.242 E54.52605
G1 X108.309 Y89.133 E54.60928
G1 X109.975 Y88.958 E54.8103
G1 X110.664 Y88.922 E54.8931
G1 X112.336 Y88.922 E55.09374
G1 X113.025 Y88.958 E55.17653
G1 X114.691 Y89.133 E55.37755
G1 X115.376 Y89.242 E55.46078
G1 X117.016 Y89.591 E55.66199
G1 X117.679 Y89.768 E55.74434
G1 X119.272 Y90.285 E55.94531
G1 X119.918 Y90.533 E56.02835
G1 X121.446 Y91.213 E56.22905
G1 X122.063 Y91.527 E56.31212
G1 X123.513 Y92.364 E56.51303
G1 X124.092 Y92.74 E56.59588
G1 X125.448 Y93.725 E56.79699
G1 X125.985 Y94.16 E56.87992
G1 X127.229 Y95.28 E57.08079
G1 X127.718 Y95.769 E57.16378
G1 X128.839 Y97.014 E57.36482
G1 X129.273 Y97.549 E57.44748
G1 X130.258 Y98.904 E57.64851
G1 X130.635 Y99.485 E57.73162
G1 X131.472 Y100.935 E57.93253
G1 X131.786 Y101.551 E58.0155
G1 X132.467 Y103.081 E58.21646
G1 X132.715 Y103.728 E58.29961
G1 X133.232 Y105.321 E58.50058
G1 X133.409 Y105.983 E58.58281
G1 X133.758 Y107.621 E58.78379
G1 X133.867 Y108.307 E58.86714
G1 X134.042 Y109.973 E59.06816
G1 X134.078 Y110.662 E59.15095
G1 X134.078 Y112.336 E59.35183
G1 X134.042 Y113.025 E59.43463
G1 X133.867 Y114.691 E59.63565
G1 X133.758 Y115.376 E59.71888
G1 X133.409 Y117.016 E59.92009
G1 X133.232 Y117.678 E60.00232
G1 X132.716 Y119.269 E60.20303
G1 X132.468 Y119.917 E60.28629
G1 X131.787 Y121.447 E60.48725
G1 X131.473 Y122.063 E60.57022
G1 X130.636 Y123.513 E60.77113
G1 X130.26 Y124.092 E60.85398
G1 X129.275 Y125.448 E61.05509
G1 X128.84 Y125.985 E61.13802
G1 X127.72 Y127.229 E61.33889
G1 X127.231 Y127.718 E61.42188
G1 X125.986 Y128.839 E61.62292
G1 X125.45 Y129.273 E61.70568
G1 X124.093 Y130.259 E61.90696
G1 X123.513 Y130.636 E61.98997
G1 X122.065 Y131.472 E62.19062
G1 X121.449 Y131.786 E62.27358
G1 X119.919 Y132.467 E62.47455
G1 X119.272 Y132.715 E62.5577
G1 X117.679 Y133.232 E62.75867
G1 X117.016 Y133.409 E62.84102
G1 X115.376 Y133.758 E63.04223
G1 X114.691 Y133.867 E63.12546
G1 X113.025 Y134.042 E63.32648
G1 X112.336 Y134.078 E63.40927
G1 X110.664 Y134.078 E63.60991
G1 X109.975 Y134.042 E63.69271
G1 X108.309 Y133.867 E63.89373
G1 X107.624 Y133.758 E63.97696
G1 X105.984 Y133.409 E64.17817
G1 X105.321 Y133.232 E64.26051
G1 X103.728 Y132.715 E64.46149
G1 X103.081 Y132.467 E64.54464
G1 X101.551 Y131.786 E64.7456
G1 X100.935 Y131.472 E64.82857
G1 X99.487 Y130.636 E65.02921
G1 X98.907 Y130.259 E65.11222
G1 X97.55 Y129.273 E65.31351
G1 X97.014 Y128.839 E65.39627
G1 X95.769 Y127.718 E65.59731
G1 X95.28 Y127.229 E65.6803
G1 X94.16 Y125.985 E65.88116
G1 X93.725 Y125.448 E65.96409
G1 X92.74 Y124.092 E66.16521
G1 X92.364 Y123.513 E66.24806
G1 X91.527 Y122.063 E66.44897
G1 X91.213 Y121.447 E66.53194
G1 X90.532 Y119.917 E66.7329
G1 X90.284 Y119.269 E66.81616
G1 X89.768 Y117.678 E67.01687
G1 X89.591 Y117.016 E67.0991
G1 X89.242 Y115.376 E67.30031
G1 X89.133 Y114.692 E67.38342
G1 X88.958 Y113.028 E67.58421
G1 X88.922 Y112.338 E67.66712
G1 X88.922 Y110.664 E67.868
G1 X88.958 Y109.975 E67.95079
G1 X89.133 Y108.309 E68.15181
G1 X89.242 Y107.624 E68.23505
G1 X89.591 Y105.984 E68.43625
G1 X89.768 Y105.322 E68.51848
G1 X90.284 Y103.731 E68.71919
G1 X90.532 Y103.083 E68.80245
G1 X91.213 Y101.553 E69.00342
G1 X91.527 Y100.937 E69.08639
G1 X92.364 Y99.487 E69.2873
G1 X92.74 Y98.908 E69.37014
G1 X93.725 Y97.552 E69.57126
G1 X94.16 Y97.015 E69.65419
G1 X95.28 Y95.771 E69.85506
G1 X95.769 Y95.282 E69.93804
G0 F3600 X96.036 Y95.579
G1 F1800 X97.281 Y94.458 E70.13908
G1 X97.786 Y94.05 E70.21699
G1 X99.143 Y93.064 E70.41828
G1 X99.687 Y92.711 E70.49609
G1 X101.135 Y91.875 E70.69674
G1 X101.714 Y91.58 E70.77471
G1 X103.244 Y90.899 E70.97568
G1 X103.851 Y90.666 E71.0537
G1 X105.444 Y90.149 E71.25468
G1 X106.068 Y89.982 E71.33219
G1 X107.708 Y89.633 E71.5334
G1 X108.35 Y89.531 E71.6114
G1 X110.016 Y89.356 E71.81242
G1 X110.664 Y89.322 E71.89029
G1 X112.336 Y89.322 E72.09093
G1 X112.984 Y89.356 E72.1688
G1 X114.65 Y89.531 E72.36982
G1 X115.292 Y89.633 E72.44782
G1 X116.932 Y89.982 E72.64903
G1 X117.556 Y90.149 E72.72655
G1 X119.149 Y90.666 E72.92752
G1 X119.756 Y90.899 E73.00554
G1 X121.284 Y91.579 E73.20624
G1 X121.863 Y91.873 E73.28417
G1 X123.313 Y92.71 E73.48507
