;FLAVOR:UltiGCode
;TIME:9857
;MATERIAL:14579
;MATERIAL2:0
;NOZZLE_DIAMETER:0.4
;Generated with Cura_SteamEngine 3.2.1
M82 ;absolute extrusion mode

;LAYER_COUNT:203
;LAYER:0
M107
G0 F3600 X168.92 Y150.513 Z0.3
;TYPE:SKIRT
G1 F1800 X169.566 Y149.811 E0.11448
G1 X170.13 Y149.258 E0.20927
G1 X170.5 Y148.95 E0.26704
G1 X171.249 Y148.364 E0.38116
G1 X171.894 Y147.909 E0.47588
G1 X172.329 Y147.654 E0.53638
G1 X173.164 Y147.2 E0.65044
G1 X173.876 Y146.859 E0.74517
G1 X174.35 Y146.678 E0.80606
G1 X175.247 Y146.369 E0.9199
G1 X176.005 Y146.15 E1.01458
G1 X176.495 Y146.052 E1.07455
G1 X177.43 Y145.895 E1.18832
G1 X178.215 Y145.804 E1.28315
G1 X178.714 Y145.787 E1.34306
G1 X179.666 Y145.786 E1.4573
G1 X180.455 Y145.825 E1.5521
G1 X180.942 Y145.89 E1.61106
G1 X181.877 Y146.044 E1.72477
G1 X182.648 Y146.211 E1.81944
G1 X183.12 Y146.355 E1.87865
G1 X184.017 Y146.66 E1.99235
G1 X184.751 Y146.952 E2.08714
G1 X185.219 Y147.185 E2.14987
G1 X186.056 Y147.638 E2.26408
G1 X186.73 Y148.049 E2.35881
G1 X187.13 Y148.34 E2.41817
G1 X187.88 Y148.923 E2.53216
G1 X188.478 Y149.438 E2.62687
G1 X188.824 Y149.79 E2.6861
G1 X189.472 Y150.492 E2.80074
G1 X189.978 Y151.099 E2.89557
G1 X190.265 Y151.508 E2.95553
G1 X190.663 Y152.115 E3.04263
G1 X190.871 Y152.046 E3.06893
G1 X191.642 Y151.875 E3.16369
G1 X192.391 Y151.786 E3.25421
G1 X193.221 Y151.585 E3.35669
G1 X193.997 Y151.438 E3.45146
G1 X194.784 Y151.37 E3.54625
G1 X195.574 Y151.382 E3.64106
G1 X196.358 Y151.474 E3.73579
G1 X197.129 Y151.645 E3.83056
G1 X197.879 Y151.892 E3.92531
G1 X198.6 Y152.215 E4.02012
G1 X199.284 Y152.608 E4.11478
G1 X199.925 Y153.069 E4.20953
G1 X200.678 Y153.755 E4.33176
G1 X200.91 Y153.996 E4.37191
G1 X201.429 Y154.592 E4.46674
G1 X201.884 Y155.238 E4.56156
G1 X202.271 Y155.926 E4.65629
G1 X202.588 Y156.649 E4.75102
G1 X202.829 Y157.401 E4.84578
G1 X202.993 Y158.174 E4.94061
G1 X203.078 Y158.959 E5.03536
G1 X203.086 Y159.677 E5.12152
G1 X203.046 Y160.826 E5.25949
G1 X202.992 Y161.514 E5.3423
G1 X202.835 Y162.781 E5.4955
G1 X202.698 Y163.559 E5.5903
G1 X202.484 Y164.319 E5.68504
G1 X202.193 Y165.053 E5.77979
G1 X201.83 Y165.755 E5.87463
G1 X201.398 Y166.416 E5.96939
G1 X200.901 Y167.029 E6.06409
G1 X200.345 Y167.59 E6.15887
G1 X199.759 Y168.073 E6.25
G1 X199.491 Y168.273 E6.29013
G1 X198.835 Y168.713 E6.38491
G1 X198.138 Y169.084 E6.47966
G1 X197.407 Y169.383 E6.57444
G1 X196.65 Y169.606 E6.66914
G1 X195.873 Y169.751 E6.76399
G1 X195.086 Y169.818 E6.85877
G1 X194.297 Y169.804 E6.95346
G1 X193.513 Y169.711 E7.0482
G1 X192.742 Y169.538 E7.14302
G1 X191.91 Y169.256 E7.24844
G1 X190.832 Y168.821 E7.38794
G1 X190.605 Y168.767 E7.41594
G1 X189.86 Y168.507 E7.51063
G1 X189.35 Y168.269 E7.57816
G1 X188.856 Y168.807 E7.66581
G1 X188.294 Y169.361 E7.76051
G1 X187.912 Y169.679 E7.82015
G1 X187.165 Y170.263 E7.93393
G1 X186.519 Y170.717 E8.02868
G1 X186.124 Y170.95 E8.08372
G1 X185.287 Y171.411 E8.19838
G1 X184.577 Y171.757 E8.29316
G1 X184.057 Y171.956 E8.35997
G1 X183.157 Y172.265 E8.47416
G1 X182.398 Y172.484 E8.56896
G1 X181.917 Y172.58 E8.62782
G1 X180.983 Y172.737 E8.74147
G1 X180.199 Y172.828 E8.83618
G1 X179.698 Y172.845 E8.89634
G1 X178.746 Y172.846 E9.01058
G1 X177.957 Y172.807 E9.10537
G1 X177.472 Y172.743 E9.16408
G1 X176.536 Y172.589 E9.27791
G1 X175.764 Y172.421 E9.37271
G1 X175.288 Y172.276 E9.43243
G1 X174.392 Y171.971 E9.546
G1 X173.659 Y171.679 E9.64069
G1 X173.193 Y171.447 E9.70315
G1 X172.356 Y170.994 E9.81736
G1 X171.682 Y170.583 E9.91209
G1 X171.286 Y170.295 E9.97085
G1 X170.535 Y169.712 E10.08494
G1 X169.936 Y169.197 E10.17973
G1 X169.583 Y168.838 E10.24015
G1 X168.933 Y168.133 E10.35522
G1 X168.428 Y167.526 E10.44997
G1 X168.14 Y167.115 E10.5102
G1 X167.626 Y166.329 E10.62289
G1 X167.228 Y165.647 E10.71765
G1 X167.022 Y165.219 E10.77465
G1 X166.638 Y164.352 E10.88844
G1 X166.355 Y163.614 E10.98328
G1 X166.21 Y163.114 E11.04576
G1 X165.975 Y162.189 E11.16028
G1 X165.82 Y161.414 E11.25512
G1 X165.762 Y160.919 E11.31493
G1 X165.683 Y159.976 E11.42849
G1 X165.657 Y159.187 E11.52322
G1 X165.681 Y158.699 E11.58185
G1 X165.757 Y157.755 E11.6955
G1 X165.86 Y156.972 E11.79027
G1 X165.968 Y156.478 E11.85095
G1 X166.201 Y155.552 E11.96553
G1 X166.432 Y154.797 E12.06028
G1 X166.618 Y154.33 E12.1206
G1 X166.998 Y153.461 E12.23441
G1 X167.351 Y152.754 E12.32924
G1 X167.608 Y152.33 E12.38873
G1 X168.123 Y151.539 E12.502
G1 X168.587 Y150.9 E12.59676
G1 X168.92 Y150.513 E12.65803
G0 F3600 X169.215 Y150.784
G1 F1800 X169.861 Y150.082 E12.77251
G1 X170.41 Y149.544 E12.86475
G1 X170.746 Y149.265 E12.91716
G1 X171.495 Y148.679 E13.03128
G1 X172.125 Y148.237 E13.12363
G1 X172.52 Y148.006 E13.17854
G1 X173.355 Y147.552 E13.29259
G1 X174.049 Y147.22 E13.38491
G1 X174.48 Y147.056 E13.44025
G1 X175.377 Y146.747 E13.5541
G1 X176.116 Y146.535 E13.64635
G1 X176.562 Y146.446 E13.70093
G1 X177.497 Y146.289 E13.8147
G1 X178.261 Y146.201 E13.90698
G1 X178.714 Y146.187 E13.96137
G1 X179.666 Y146.186 E14.07561
G1 X180.434 Y146.225 E14.16789
G1 X180.877 Y146.284 E14.22152
G1 X181.812 Y146.438 E14.33523
G1 X182.563 Y146.603 E14.4275
G1 X182.991 Y146.734 E14.48121
G1 X183.888 Y147.039 E14.5949
G1 X184.603 Y147.324 E14.68727
G1 X185.028 Y147.537 E14.74432
G1 X185.865 Y147.99 E14.85852
G1 X186.522 Y148.391 E14.95089
G1 X186.885 Y148.656 E15.00482
G1 X187.635 Y149.239 E15.11881
G1 X188.216 Y149.742 E15.21103
G1 X188.531 Y150.062 E15.26491
G1 X189.179 Y150.764 E15.37956
G1 X189.67 Y151.355 E15.47176
G1 X189.931 Y151.727 E15.52629
G1 X190.448 Y152.516 E15.63949
G1 X190.489 Y152.586 E15.64922
G1 X191.21 Y152.372 E15.73947
G1 X191.966 Y152.23 E15.83178
G1 X192.365 Y152.204 E15.87976
G1 X193.316 Y151.973 E15.9972
G1 X194.071 Y151.831 E16.08939
G1 X194.838 Y151.768 E16.18174
G1 X195.607 Y151.785 E16.27404
G1 X196.37 Y151.882 E16.36634
G1 X197.119 Y152.057 E16.45864
G1 X197.846 Y152.31 E16.55101
G1 X198.542 Y152.636 E16.64324
G1 X199.201 Y153.033 E16.73556
G1 X199.815 Y153.496 E16.82784
G1 X200.39 Y154.033 E16.92225
G1 X200.622 Y154.274 E16.96239
G1 X201.126 Y154.855 E17.05469
G1 X201.567 Y155.485 E17.14697
G1 X201.94 Y156.158 E17.2393
G1 X202.241 Y156.866 E17.33162
G1 X202.467 Y157.601 E17.4239
G1 X202.616 Y158.355 E17.51613
G1 X202.686 Y159.121 E17.60843
G1 X202.687 Y159.663 E17.67347
G1 X202.647 Y160.812 E17.81144
G1 X202.595 Y161.465 E17.89004
G1 X202.438 Y162.732 E18.04325
G1 X202.304 Y163.489 E18.1355
G1 X202.092 Y164.229 E18.22787
G1 X201.804 Y164.942 E18.32015
G1 X201.444 Y165.622 E18.41248
G1 X201.015 Y166.26 E18.50474
G1 X200.523 Y166.851 E18.59701
G1 X199.971 Y167.387 E18.68934
G1 X199.52 Y167.753 E18.75904
G1 X199.252 Y167.953 E18.79917
G1 X198.612 Y168.38 E18.8915
G1 X197.932 Y168.739 E18.98377
G1 X197.218 Y169.025 E19.07607
G1 X196.478 Y169.235 E19.16837
G1 X195.721 Y169.368 E19.2606
G1 X194.953 Y169.421 E19.35298
G1 X194.184 Y169.394 E19.44532
G1 X193.423 Y169.288 E19.53752
G1 X192.676 Y169.103 E19.62987
G1 X192.059 Y168.885 E19.7084
G1 X190.951 Y168.438 E19.85177
G1 X190.699 Y168.378 E19.88285
G1 X189.973 Y168.121 E19.97527
G1 X189.279 Y167.791 E20.06749
G1 X189.255 Y167.776 E20.07088
G1 X189.204 Y167.835 E20.08024
G1 X188.561 Y168.536 E20.19439
G1 X188.013 Y169.075 E20.28663
G1 X187.666 Y169.364 E20.34082
G1 X186.919 Y169.948 E20.4546
G1 X186.289 Y170.389 E20.54688
G1 X185.931 Y170.6 E20.59675
G1 X185.094 Y171.061 E20.71142
G1 X184.402 Y171.396 E20.80368
G1 X183.927 Y171.578 E20.86472
G1 X183.027 Y171.887 E20.9789
G1 X182.288 Y172.099 E21.07116
G1 X181.851 Y172.186 E21.12463
G1 X180.917 Y172.343 E21.23828
G1 X180.153 Y172.431 E21.33057
G1 X179.698 Y172.445 E21.38519
G1 X178.746 Y172.446 E21.49943
G1 X177.978 Y172.407 E21.59171
G1 X177.537 Y172.348 E21.6451
G1 X176.601 Y172.194 E21.75893
G1 X175.849 Y172.03 E21.8513
G1 X175.417 Y171.897 E21.90554
G1 X174.521 Y171.592 E22.01912
G1 X173.807 Y171.307 E22.11137
G1 X173.384 Y171.095 E22.16815
G1 X172.547 Y170.642 E22.28235
G1 X171.89 Y170.241 E22.37472
G1 X171.531 Y169.979 E22.42805
G1 X170.78 Y169.396 E22.54214
G1 X170.198 Y168.894 E22.63437
G1 X169.877 Y168.567 E22.68936
G1 X169.227 Y167.862 E22.80443
G1 X168.736 Y167.27 E22.89672
G1 X168.475 Y166.896 E22.95145
G1 X167.961 Y166.11 E23.06415
G1 X167.574 Y165.445 E23.15648
G1 X167.388 Y165.057 E23.20811
G1 X167.004 Y164.19 E23.3219
G1 X166.729 Y163.471 E23.41427
G1 X166.598 Y163.015 E23.47121
G1 X166.363 Y162.09 E23.58573
G1 X166.212 Y161.336 E23.67801
G1 X166.161 Y160.886 E23.73236
G1 X166.082 Y159.943 E23.84591
G1 X166.058 Y159.174 E23.93824
G1 X166.08 Y158.731 E23.99146
G1 X166.156 Y157.787 E24.10511
G1 X166.257 Y157.025 E24.19735
G1 X166.356 Y156.575 E24.25264
G1 X166.589 Y155.649 E24.36722
G1 X166.815 Y154.914 E24.4595
G1 X166.985 Y154.49 E24.51432
G1 X167.365 Y153.621 E24.62813
G1 X167.709 Y152.933 E24.72043
G1 X167.944 Y152.548 E24.77456
G1 X168.459 Y151.757 E24.88783
G1 X168.911 Y151.136 E24.98
G1 X169.215 Y150.784 E25.03581
G0 F3600 X169.509 Y151.055
G1 F1800 X170.155 Y150.353 E25.15029
G1 X170.69 Y149.83 E25.24007
G1 X170.993 Y149.58 E25.28721
G1 X171.742 Y148.994 E25.40133
G1 X172.355 Y148.565 E25.49111
G1 X172.711 Y148.357 E25.54059
G1 X173.546 Y147.903 E25.65464
G1 X174.222 Y147.582 E25.74444
G1 X174.61 Y147.435 E25.79423
G1 X175.507 Y147.126 E25.90808
G1 X176.226 Y146.92 E25.99783
G1 X176.628 Y146.841 E26.04699
G1 X177.563 Y146.684 E26.16077
G1 X178.306 Y146.599 E26.25051
G1 X178.715 Y146.587 E26.29961
G1 X179.667 Y146.586 E26.41385
G1 X180.414 Y146.625 E26.50361
G1 X180.812 Y146.679 E26.55181
G1 X181.747 Y146.833 E26.66552
G1 X182.477 Y146.994 E26.75522
G1 X182.862 Y147.113 E26.80358
G1 X183.759 Y147.418 E26.91727
G1 X184.454 Y147.696 E27.0071
G1 X184.838 Y147.889 E27.05867
G1 X185.675 Y148.342 E27.17288
G1 X186.313 Y148.733 E27.26267
G1 X186.639 Y148.971 E27.31111
G1 X187.389 Y149.554 E27.4251
G1 X187.954 Y150.044 E27.51485
G1 X188.237 Y150.333 E27.56338
G1 X188.885 Y151.035 E27.67803
G1 X189.362 Y151.611 E27.76777
G1 X189.596 Y151.946 E27.81681
G1 X190.113 Y152.735 E27.93
G1 X190.317 Y153.087 E27.97882
G1 X190.82 Y152.896 E28.04339
G1 X191.544 Y152.707 E28.13318
G1 X192.284 Y152.596 E28.22297
G1 X192.483 Y152.587 E28.24688
G1 X193.41 Y152.362 E28.36135
G1 X194.145 Y152.225 E28.45107
G1 X194.891 Y152.167 E28.54086
G1 X195.639 Y152.189 E28.63066
G1 X196.38 Y152.291 E28.72041
G1 X197.106 Y152.471 E28.81017
G1 X197.809 Y152.728 E28.89999
G1 X198.48 Y153.058 E28.98972
G1 X199.112 Y153.458 E29.07948
G1 X199.698 Y153.923 E29.16925
G1 X200.102 Y154.31 E29.23638
G1 X200.334 Y154.551 E29.27652
G1 X200.823 Y155.117 E29.36628
G1 X201.249 Y155.732 E29.45606
G1 X201.607 Y156.389 E29.54584
G1 X201.893 Y157.08 E29.63558
G1 X202.104 Y157.798 E29.72539
G1 X202.236 Y158.534 E29.81512
G1 X202.287 Y159.65 E29.94918
G1 X202.247 Y160.799 E30.08714
G1 X202.198 Y161.416 E30.16141
G1 X202.041 Y162.683 E30.31462
G1 X201.909 Y163.419 E30.40434
G1 X201.7 Y164.137 E30.49408
G1 X201.415 Y164.829 E30.58389
G1 X201.058 Y165.487 E30.67372
G1 X200.633 Y166.102 E30.76343
G1 X200.145 Y166.669 E30.8532
G1 X199.599 Y167.18 E30.94294
G1 X199.281 Y167.432 E30.99163
G1 X199.013 Y167.632 E31.03175
G1 X198.39 Y168.047 E31.12158
G1 X197.727 Y168.393 E31.21133
G1 X197.03 Y168.666 E31.30115
G1 X196.309 Y168.863 E31.39084
G1 X195.57 Y168.982 E31.48067
G1 X194.823 Y169.022 E31.57043
G1 X194.076 Y168.982 E31.6602
G1 X193.338 Y168.862 E31.74993
G1 X192.616 Y168.664 E31.83976
G1 X192.209 Y168.514 E31.89182
G1 X191.072 Y168.056 E32.03891
G1 X190.792 Y167.988 E32.07349
G1 X190.088 Y167.736 E32.16322
G1 X189.415 Y167.41 E32.25295
G1 X189.174 Y167.259 E32.28708
G1 X188.91 Y167.565 E32.33558
G1 X188.267 Y168.266 E32.44972
G1 X187.732 Y168.789 E32.5395
G1 X187.419 Y169.049 E32.58833
G1 X186.672 Y169.633 E32.70212
G1 X185.738 Y170.249 E32.83638
G1 X184.901 Y170.71 E32.95104
G1 X184.227 Y171.036 E33.04089
G1 X183.797 Y171.2 E33.09611
G1 X182.897 Y171.509 E33.2103
G1 X182.178 Y171.713 E33.29999
G1 X181.784 Y171.791 E33.34818
G1 X180.85 Y171.948 E33.46184
G1 X180.107 Y172.033 E33.55158
G1 X179.697 Y172.045 E33.6008
G1 X178.745 Y172.046 E33.71504
G1 X177.998 Y172.007 E33.8048
G1 X177.602 Y171.953 E33.85276
G1 X176.666 Y171.799 E33.96659
G1 X175.935 Y171.638 E34.05641
G1 X175.546 Y171.519 E34.10523
G1 X174.65 Y171.214 E34.21881
G1 X173.956 Y170.935 E34.30857
G1 X173.574 Y170.743 E34.35987
G1 X172.737 Y170.29 E34.47408
G1 X172.099 Y169.899 E34.56387
G1 X171.777 Y169.663 E34.61178
G1 X171.026 Y169.08 E34.72587
G1 X170.46 Y168.591 E34.81562
G1 X170.172 Y168.296 E34.8651
G1 X169.522 Y167.591 E34.98017
G1 X169.045 Y167.015 E35.06991
G1 X168.809 Y166.677 E35.11938
G1 X168.295 Y165.891 E35.23208
G1 X167.92 Y165.244 E35.32181
G1 X167.754 Y164.895 E35.36819
G1 X167.37 Y164.028 E35.48198
G1 X167.104 Y163.329 E35.57173
G1 X166.986 Y162.917 E35.62315
G1 X166.751 Y161.992 E35.73768
G1 X166.605 Y161.258 E35.82749
G1 X166.559 Y160.852 E35.87652
G1 X166.48 Y159.909 E35.99007
G1 X166.458 Y159.162 E36.07975
G1 X166.479 Y158.763 E36.1277
G1 X166.555 Y157.819 E36.24135
G1 X166.654 Y157.078 E36.33106
G1 X166.744 Y156.673 E36.38084
G1 X166.977 Y155.747 E36.49543
G1 X167.198 Y155.032 E36.58523
G1 X167.351 Y154.65 E36.63461
G1 X167.731 Y153.781 E36.74843
G1 X168.067 Y153.113 E36.83815
G1 X168.279 Y152.767 E36.88685
G1 X168.794 Y151.976 E37.00011
G1 X169.235 Y151.371 E37.08995
G1 X169.509 Y151.055 E37.14014
G0 F3600 X169.803 Y151.326
G1 F1800 X170.449 Y150.624 E37.25462
G1 X171.239 Y149.895 E37.38362
G1 X171.988 Y149.309 E37.49774
G1 X172.584 Y148.893 E37.58496
G1 X172.902 Y148.709 E37.62905
G1 X173.737 Y148.255 E37.7431
G1 X174.394 Y147.943 E37.83038
G1 X174.74 Y147.813 E37.87473
G1 X175.637 Y147.504 E37.98858
G1 X176.336 Y147.305 E38.07579
G1 X176.694 Y147.235 E38.11957
G1 X177.629 Y147.078 E38.23334
G1 X178.351 Y146.997 E38.32052
G1 X178.715 Y146.987 E38.36422
G1 X179.667 Y146.986 E38.47846
G1 X180.747 Y147.074 E38.60849
G1 X181.682 Y147.228 E38.7222
G1 X182.734 Y147.491 E38.85232
G1 X183.631 Y147.796 E38.96601
G1 X184.304 Y148.068 E39.05312
G1 X184.647 Y148.241 E39.09922
G1 X185.484 Y148.694 E39.21343
G1 X186.394 Y149.287 E39.34377
G1 X187.144 Y149.87 E39.45776
G1 X187.943 Y150.604 E39.58796
G1 X188.591 Y151.306 E39.7026
G1 X189.053 Y151.866 E39.78972
G1 X189.261 Y152.166 E39.83352
G1 X189.778 Y152.955 E39.94672
G1 X190.132 Y153.607 E40.03575
G1 X190.476 Y153.445 E40.08137
G1 X191.164 Y153.21 E40.16862
G1 X191.873 Y153.053 E40.25576
G1 X192.455 Y153.005 E40.32584
G1 X193.504 Y152.751 E40.45535
G1 X194.218 Y152.619 E40.54249
G1 X194.943 Y152.566 E40.62972
G1 X195.669 Y152.593 E40.7169
G1 X196.387 Y152.7 E40.80401
G1 X197.089 Y152.885 E40.89113
G1 X197.767 Y153.146 E40.97831
G1 X198.412 Y153.48 E41.06547
G1 X199.017 Y153.883 E41.1527
G1 X199.814 Y154.588 E41.28039
G1 X200.046 Y154.829 E41.32053
G1 X200.52 Y155.379 E41.40766
G1 X200.931 Y155.978 E41.49483
G1 X201.273 Y156.618 E41.58191
G1 X201.544 Y157.293 E41.66919
G1 X201.738 Y157.993 E41.75636
G1 X201.854 Y158.71 E41.84352
G1 X201.887 Y159.636 E41.95471
G1 X201.847 Y160.785 E42.09267
G1 X201.801 Y161.367 E42.16273
G1 X201.644 Y162.634 E42.31593
G1 X201.515 Y163.348 E42.403
G1 X201.308 Y164.045 E42.49025
G1 X201.027 Y164.714 E42.57733
G1 X200.673 Y165.349 E42.66457
G1 X200.251 Y165.94 E42.75171
G1 X199.768 Y166.482 E42.83883
G1 X199.041 Y167.111 E42.95419
G1 X198.773 Y167.311 E42.99432
G1 X198.168 Y167.713 E43.08148
G1 X197.523 Y168.046 E43.16859
G1 X196.844 Y168.306 E43.25584
G1 X196.142 Y168.49 E43.34292
G1 X195.423 Y168.595 E43.43012
G1 X194.697 Y168.621 E43.5173
G1 X193.973 Y168.567 E43.60442
G1 X193.259 Y168.433 E43.69159
G1 X192.358 Y168.143 E43.80518
